X:130
T: Wir sitzen so frhlich beisammen (2-11), S. 24f
N: K1104
O: Luxemburg
S: KINTZELE, Guillaume: An der Ucht, Bd. 2, Luxemburg 1927]
N: in der Quelle mit einer 2. Stimme versehen
R: Spottlied]
M: 3/4
L: 1/8
K: G
G2 | G2D2B2 | B2G2d2 | edcBAG | d2d2
ed | c2A2G2 | G2F2ed | c2A2G2 | G2F2
GG | e3ee2 | edd2Bd | dcc2Ac | c2B2
GG | e3ee2 | edd2Bd | dcc2Ac | c2B2

@@@ Tune index: 8184
